!!!SOCIAL_FUNCTION:	songs of war
!!!PDT:	1918

Specific Region: Dakotas, Minnesota, Montana, Nebraska
!!!REG: Dakotas and Montana
!!!LING_GROUP: Siouan
!!!LANG: Tone
!!!OTL@ENG: Tremble, O Tribe of the Enemy
!!!ONM: No. 139
**kern
*Imale
*clefF4
*k[f#c#]
*M2/4
*>[A,B,B]
*>norep[A,B]
*>A
*MM144
12f#
12f#
12f#
4f#
=2
12f#
12e
12f#
8d
8B
=3
8.d
16B
4B
=4||
*M3/4
16e
8d
16B
4B
8.B
16B
=5||
*M2/4
(16d
8.B)
4B)
=6
2B
*>B
=7!|:
12d
12d
12d
4f#
=8
12f#
12e
12f#
8d
8B
=9
8.d
16B
4B
=||
16e
8d
16d
4B
4B
=
(16d
[8.B)
4B_)
8B]
16F#
16F#
=10||
*M2/4
8.F#
16F#
4F#
=11
12F#
12E
12F#
8D
8BB
=12
8.D
16D
4D
=13||
*M3/4
16E
8D
16BB
4BB
8.BB
16BB
=14||
*M2/4
2BB
=15
2BB
==:|!
*-
!!!CNT: Native American -- Sioux
!!!MRD: 1911/07//-1914///
!!!OCL: Frances Densmore
!!!YOR1: Teton Sioux Music, Bulletin 61,
!!!YOR2: Bureau of American Ethnology, Smithsonian Institution
!!!PPR: Government Printing Office
!!!PPP: Washington, D.C.
!!!PDT: 1918///
!!!ENC: Craig Stuart Sapp
!!!END: 2002/03/25/
!!!EEV: 2002/03/31/
!!!AGN: War Song/Song of a Typical War Expedition
!!!MPN@@SIO: Shiya'ka
!!!MPN@ENG: Teal Duck
!!!TXO: Teton Sioux
!!!MLC: Standing Rock Reservation, South Dakota, United States of America
!!!ARL: 45.9/-100.7#
!!!catalog: Catalogue No. 466
!!!PPG: 354
!!!EFL: 143/245
!!!VTS: 3762693161
